X:1
T:Title
%%score { ( 1 3 4 ) | ( 2 5 ) }
L:1/8
M:4/4
K:Ab
V:1 treble nm="Grand Piano"
V:3 treble 
V:4 treble 
V:2 bass 
V:5 bass 
V:1
 z4 z[Q:1/4=100] ECE | F6 z2 | G4 z4 | G6 z2 | [Ac]6 z2 | F6 z2 | G4 z4 | B6 z2 | B6 z2 | c4 B4 | %10
 A6 z2 | [A,CE]2 [A,CE]>[A,CE] [A,CE]4 | [A,DF]<[FA] [DFA]>[A,DF] [CE]4 | %13
 [CE]2 [CA]>[DB] [Ec]2 [Ee]2 | [Ec]2 [EB]6 | [Ec]2 [Ec]>[DB] [CA]2 [CE]2 | %16
 [A,DF]<[FA] [DFA]2 [DFA]2 d2 | c4 B4 |[M:11/16] A/-A/-A/-A/-A/-A/-A/-A-<A |] %19
V:2
 z8 | z [A,,E,][A,,E,][A,,E,] [A,,E,]2 [A,,A,]2 | [E,B,D][E,B,][E,B,][E,B,] .[E,B,]2 z2 | %3
 z [E,B,][E,B,][E,B,] z E [E,E]2 | [A,E]A,A,A, .A,2 z2 | %5
 z [A,,E,][A,,E,][A,,E,] [A,,E,]2 [A,,A,]2 | [E,B,D][E,B,][E,B,][E,B,] .[E,B,]2 z2 | %7
 z [B,,F,][B,,F,][B,,F,] [B,,F,]2 [B,,B,]2 | [E,G,E][E,G,][F,A,][F,A,] [G,B,]2[K:treble] F2 | %9
 E4[K:bass] D2- [E,D]2 | z2 F,2 E,2 z2 | A,,2 A,,>A,, A,,4 | z/ D3/2 D,>D, [A,,A,]4 | %13
 [A,,A,]2 [A,,A,]>[A,,A,] [A,,A,]2 [C,A,]2 | [E,A,]2 [E,G,]6 | %15
 [A,,A,]2 [A,,A,]>[A,,A,] [A,,A,]2 [A,,A,]2 | z/ D3/2 D,2 D,2[K:treble] F2 | %17
 E4[K:bass] D2- [E,D]2 |[M:11/16] z/ z/ z F,-<F,[A,,E,]3/2 |] %19
V:3
 x8 | z CCC z EFA | z DDD DGFE | z DDD Dd[Fd][Gd] | z CCD EECE | z CCC z EFA | z DDD DG_G=G | %7
 z DDD z FGA | z E=DD _D2 d2 | z2 E,2 z2 G,2 | [A,C]2 D2 C2 z2 | x8 | x8 | x8 | x8 | x8 | x8 | %17
 z2 E,2 z2 G,2 |[M:11/16] [A,C]-<[A,C]D-<DC3/2 |] %19
V:4
 x8 | z4 C2 C2 | x8 | x8 | x8 | z4 C2 C2 | x8 | z4 D2 D2 | x8 | x8 | x8 | x8 | x8 | x8 | x8 | x8 | %16
 x8 | x8 |[M:11/16] x11/2 |] %19
V:5
 x8 | x8 | x8 | z4 [E,B,]2 z2 | x8 | x8 | x8 | x8 | x6[K:treble] x2 | z4[K:bass] [E,F,]2 z2 | %10
 A,,6 z2 | x8 | D,2 z2 z4 | x8 | x8 | x8 | D,2 z2 z4[K:treble] | z4[K:bass] [E,F,]2 z2 | %18
[M:11/16] A,,/-A,,/-A,,/-A,,/-A,,-<A,, z/ z |] %19

